plasma/desktoptheme/Arc-Dark/icons/ring.svg

<svg xmlns="http://www.w3.org/2000/svg" width="32" height="32" version="1.1">
 <g id="ring-kde">
  <rect style="opacity:0.001" width="32" height="32" x="0" y="0"/>
  <path d="M 5.0311759,7.257622 3.0525978,10.732896 C 1.7335447,13.049745 25.649753,27.059206 26.968801,24.742362 L 28.947397,21.267099 C 30.266517,18.950289 6.3502421,4.9407873 5.0311881,7.2576395" style="opacity:0.6;fill:#d3dae3"/>
  <path d="M 26.968824,7.257622 28.947402,10.732896 C 30.266455,13.049745 6.3502469,27.059206 5.0311989,24.742362 L 3.0526029,21.267099 C 1.7334829,18.950289 25.649758,4.9407873 26.968812,7.2576395" style="opacity:0.3;fill:#d3dae3"/>
  <path d="M 17.970836,2.0091801 13.971074,2.0000001 C 11.304564,1.9938801 11.362662,29.984695 14.029164,29.990814 L 18.028927,30.000014 C 20.695436,30.006214 20.637339,2.0153195 17.970827,2.0091996" style="fill:#d3dae3"/>
 </g>
 <g id="22-22-ring-kde">
  <rect style="opacity:0.001" id="rect2" width="22" height="22" x="32" y="10"/>
  <path d="M 36.533636,16.114499 35.523618,17.856218 C 34.850273,19.017365 48.79306,27.046717 49.466404,25.885572 L 50.476382,24.14383 C 51.14973,22.982685 37.206941,14.953331 36.533596,16.114475" style="opacity:0.6;fill:#d3dae3"/>
  <path d="M 49.466364,16.114499 50.476382,17.856218 C 51.149727,19.017365 37.20694,27.046717 36.533596,25.885572 L 35.523618,24.14383 C 34.85027,22.982685 48.793059,14.953331 49.466404,16.114475" style="opacity:0.3;fill:#d3dae3"/>
  <path d="M 43.985417,13.00527 41.985536,13.000025 C 40.652281,12.996529 40.68133,28.991279 42.014582,28.994775 L 44.014464,28.999975 C 45.347719,29.003475 45.318671,13.008721 43.985418,13.005224" style="fill:#d3dae3"/>
 </g>
</svg>

<?xml version="1.0" encoding="UTF-8"?>
<svg width="32" height="32" version="1.1" xmlns="http://www.w3.org/2000/svg">
 <g id="ring-kde">
  <rect width="32" height="32" opacity=".001"/>
  <path d="m5.0312 7.2576-1.9786 3.4753c-1.3191 2.3168 22.597 16.326 23.916 14.009l1.9786-3.4753c1.3191-2.3168-22.597-16.326-23.916-14.009" fill="#d3dae3" opacity=".6"/>
  <path d="m26.969 7.2576 1.9786 3.4753c1.3191 2.3168-22.597 16.326-23.916 14.009l-1.9786-3.4753c-1.3191-2.3168 22.597-16.326 23.916-14.009" fill="#d3dae3" opacity=".3"/>
  <path d="m17.971 2.0092-3.9998-0.00918c-2.6665-0.00612-2.6084 27.985 0.05809 27.991l3.9998 0.0092c2.6665 0.0062 2.6084-27.985-0.0581-27.991" fill="#d3dae3"/>
 </g>
 <g id="22-22-ring-kde">
  <rect id="rect2" x="32" y="10" width="22" height="22" opacity=".001"/>
  <path d="m36.534 16.114-1.01 1.7417c-0.67334 1.1611 13.269 9.1905 13.943 8.0294l1.01-1.7417c0.67335-1.1611-13.269-9.1905-13.943-8.0294" fill="#d3dae3" opacity=".6"/>
  <path d="m49.466 16.114 1.01 1.7417c0.67334 1.1611-13.269 9.1905-13.943 8.0294l-1.01-1.7417c-0.67335-1.1611 13.269-9.1905 13.943-8.0294" fill="#d3dae3" opacity=".3"/>
  <path d="m43.985 13.005-1.9999-0.005245c-1.3333-0.003496-1.3042 15.991 0.029046 15.995l1.9999 0.0052c1.3333 0.0035 1.3042-15.991-0.029046-15.995" fill="#d3dae3"/>
 </g>
</svg>
